X: 37727
T: Soldier's Joy
R: hornpipe
M: 4/4
K: Dmajor
|:FG|AFDF AFDF|D2 d4 cB|AFDF AFDF|G2 E4 FG|
AFDF AFDF|D2 d4 fg|afdf gece|d2 d4:|
|:e2|fefg fagf|edcd efge|fefg fagf|edcB A2 A2|
fefg fagf|edcd efge|afdf gece|d2 d4:|

